resources/haticons/SVG/assignment_late.svg

<!-- Generated by IcoMoon.io -->
<svg version="1.1" xmlns="http://www.w3.org/2000/svg" width="24" height="24" viewBox="0 0 24 24">
<title>assignment_late</title>
<path d="M12 5.016q0.422 0 0.703-0.305t0.281-0.727-0.281-0.703-0.703-0.281-0.703 0.281-0.281 0.703 0.281 0.727 0.703 0.305zM12.984 14.016v-6h-1.969v6h1.969zM12.984 18v-2.016h-1.969v2.016h1.969zM18.984 3q0.797 0 1.406 0.609t0.609 1.406v13.969q0 0.797-0.609 1.406t-1.406 0.609h-13.969q-0.797 0-1.406-0.609t-0.609-1.406v-13.969q0-0.797 0.609-1.406t1.406-0.609h4.172q0.328-0.891 1.078-1.453t1.734-0.563 1.734 0.563 1.078 1.453h4.172z"></path>
</svg>

<svg xmlns="http://www.w3.org/2000/svg" width="24" height="24"><path d="M12 5.016q.422 0 .703-.305t.281-.727-.281-.703T12 3t-.703.281-.281.703.281.727.703.305zm.984 9v-6h-1.969v6h1.969zm0 3.984v-2.016h-1.969V18h1.969zm6-15q.797 0 1.406.609t.609 1.406v13.969q0 .797-.609 1.406t-1.406.609H5.015q-.797 0-1.406-.609T3 18.984V5.015q0-.797.609-1.406T5.015 3h4.172q.328-.891 1.078-1.453t1.734-.563 1.734.563T14.811 3h4.172z"/></svg>
